papirus/32x32/apps/mendeley-desktop.svg

<svg height="32" viewBox="0 0 32 32.000001" width="32" xmlns="http://www.w3.org/2000/svg"><rect fill="#be212e" height="28" rx="1.4736843" width="28" x="2" y="2"/><path d="m10.347656 10.001953c-.8704673.02775-1.7113984.42979-2.3554685 1.039063-.6545595.619192-1.1237127 1.470128-1.21875 2.384765-.04752.457352-.00148.925191.1445313 1.359375.1459947.434253.3928803.833608.7207031 1.142578.3866341.3644.8704017.593868 1.3144531.878907.2220261.142555.4352305.301708.6191406.49414.1839094.192431.3376704.420999.421875.677735.074917.228434.092043.47412.058593.71289-.03345.238839-.1182884.469741-.2421871.673828-.2477954.408239-.6474814.704358-1.0859375.863282-.5085515.184315-1.0684183.193811-1.5585938.425781-.3878787.183553-.7144842.503347-.9179687.892578-.2034821.389232-.2838335.847098-.234375 1.287109.058112.51701.2973563 1.007956.6542969 1.373047.3569399.365093.8291965.603046 1.3242187.681641.7258921.115223 1.5016211-.125435 2.0292965-.65625.263836-.265407.463823-.597651.576172-.960938.112348-.363358.135502-.756819.0625-1.130859-.05574-.285593-.163967-.556542-.265625-.828125-.101656-.271649-.198148-.549533-.222656-.839844-.04327-.512572.14513-1.034089.472656-1.419922.327529-.385833.786405-.639713 1.269531-.751953.311715-.07242.636359-.08933.951172-.0332.314815.05619.619912.184981.875.384766.255088.199784.459014.470823.572266.78125.113254.310429.133278.660039.04297.978515-.0925.326174-.29079.607025-.492188.875-.201395.267969-.413525.537054-.533203.853516-.131982.348998-.145118.74239-.05469 1.105469.09043.363011.28096.69479.53125.964844.27689.298776.628418.522163 1.009765.644531.3813514.122434.7708114.144528 1.1699244.144528.399115 0 .815917-.0221 1.197266-.144531.381347-.122368.732874-.345755 1.009765-.644531.250289-.270054.440825-.601833.53125-.964844.09042-.363079.07729-.756471-.05469-1.105469-.119679-.316463-.331806-.585543-.533203-.853516-.201397-.267975-.399697-.548826-.492188-.875-.09031-.318476-.07028-.668086.04297-.978515.113252-.310427.317177-.581466.572266-.78125.255088-.199785.560185-.328576.875-.384766.314813-.05613.639457-.03921.951172.0332.483125.11224.942004.36612 1.269531.751953.327526.385833.515929.90735.472656 1.419922-.0245.290311-.120999.568195-.222656.839844-.101655.271586-.20988.542532-.265625.828125-.07299.37404-.04985.767501.0625 1.130859.112348.363287.312336.695531.576172.960938.527675.530815 1.303404.771473 2.029296.65625.495022-.0786.967279-.316548 1.324219-.681641.35694-.365091.596183-.856037.654297-1.373047.04946-.440011-.03089-.897877-.234375-1.287109-.203485-.389231-.530089-.709025-.917969-.892578-.490175-.23197-1.050042-.241466-1.558593-.425781-.438456-.158924-.838142-.455043-1.085938-.863282-.123899-.204087-.208738-.434989-.242187-.673828-.03345-.23877-.01633-.484456.05859-.71289.0842-.256736.237965-.485304.421875-.677735.183909-.192432.397114-.351585.619141-.49414.444052-.285039.927819-.514507 1.314453-.878907.327823-.30897.574708-.708325.720703-1.142578.145987-.434184.192048-.902023.144531-1.359375-.09504-.914637-.564191-1.765573-1.21875-2.384765-.644069-.609273-1.485-1.011314-2.355468-1.039063-.435233-.013875-.872241.06432-1.273438.240235-.401195.17592-.765434.450037-1.042968.798828-.318174.399845-.518052.884514-.701172 1.367187-.18312.482742-.355532.976725-.632813 1.408203-.457249.711526-1.178748 1.386722-2.001948 1.386722-.823199 0-1.5447-.675196-2.001953-1.386719-.277284-.431478-.449693-.925461-.632813-1.408203-.18312-.482673-.382998-.967341-.701172-1.367187-.277533-.348791-.641772-.622908-1.042968-.798828-.401195-.175922-.838205-.2541086-1.273438-.240235zm5.652344 5.998047a1.0000085 1.0000087 0 0 1 1 1 1.0000085 1.0000087 0 0 1 -1 1 1.0000085 1.0000087 0 0 1 -1-1 1.0000085 1.0000087 0 0 1  1-1z" opacity=".2"/><path d="m10.347656 9.0019531c-.8704673.02775-1.7113984.4297903-2.3554685 1.0390629-.6545595.619192-1.1237127 1.470128-1.21875 2.384765-.04752.457352-.0014835.925191.1445313 1.359375.1459947.434253.3928803.833608.7207031 1.142578.3866341.3644.8704017.593868 1.3144531.878907.2220261.142555.4352305.301708.6191406.49414.1839094.192431.3376704.420999.421875.677735.0749174.228434.0920434.47412.0585934.71289-.03345.238839-.1182884.469741-.2421871.673828-.2477954.408239-.6474814.704358-1.0859375.863282-.5085515.184315-1.0684183.193811-1.5585938.425781-.3878787.183553-.7144842.503347-.9179687.892578-.2034821.389232-.2838335.847098-.234375 1.287109.058112.51701.2973563 1.007956.6542969 1.373047.3569399.365093.8291965.603046 1.3242187.681641.7258921.115223 1.5016211-.125435 2.0292965-.65625.263836-.265407.463823-.597651.576172-.960938.112348-.363358.135502-.756819.0625-1.130859-.05574-.285593-.163967-.556542-.265625-.828125-.101656-.271649-.198148-.549533-.222656-.839844-.04327-.512572.14513-1.034089.472656-1.419922.327529-.385833.786405-.639713 1.269531-.751953.311715-.07242.636359-.089333.951172-.033203.314815.05619.619912.184981.875.384766.255088.199784.459014.470823.572266.78125.113254.310429.133278.660039.042969.978515-.0925.326174-.29079.607025-.492188.875-.201395.267969-.413525.537054-.533203.853516-.131982.348998-.145118.74239-.054687 1.105469.09043.363011.28096.69479.53125.964844.27689.298776.628418.522163 1.009765.644531.381349.122437.770809.144531 1.169922.144531.399115 0 .815917-.022095 1.197266-.144531.381347-.122368.732874-.345755 1.009765-.644531.250289-.270054.440825-.601833.53125-.964844.09042-.363079.077293-.756471-.054687-1.105469-.119679-.316463-.331806-.585543-.533203-.853516-.201397-.267975-.399697-.548826-.492188-.875-.09031-.318476-.070281-.668086.042969-.978515.113252-.310427.317177-.581466.572266-.78125.255088-.199785.560185-.328576.875-.384766.314813-.05613.639457-.039207.951172.033203.483125.11224.942004.36612 1.269531.751953.327526.385833.515929.90735.472656 1.419922-.0245.290311-.120999.568195-.222656.839844-.101655.271586-.20988.542532-.265625.828125-.07299.37404-.04985.767501.0625 1.130859.112348.363287.312336.695531.576172.960938.527675.530815 1.303404.771473 2.029296.65625.495022-.0786.967279-.316548 1.324219-.681641.35694-.365091.596183-.856037.654297-1.373047.04946-.440011-.030892-.897877-.234375-1.287109-.203485-.389231-.530089-.709025-.917969-.892578-.490175-.23197-1.050042-.241466-1.558593-.425781-.438456-.158924-.838142-.455043-1.085938-.863282-.123899-.204087-.208738-.434989-.242187-.673828-.03345-.23877-.016327-.484456.058593-.71289.0842-.256736.237965-.485304.421875-.677735.183909-.192432.397114-.351585.619141-.49414.444052-.285039.927819-.514507 1.314453-.878907.327823-.30897.574708-.708325.720703-1.142578.145987-.434184.192048-.902023.144531-1.359375-.09504-.914637-.564191-1.765573-1.21875-2.384765-.644069-.6092726-1.485-1.0113142-2.355468-1.0390629-.435233-.013875-.872241.0643165-1.273438.2402344-.401195.1759206-.765434.4500377-1.042968.7988285-.318174.399845-.518052.884514-.701172 1.367187-.18312.482742-.355532.976725-.632813 1.408203-.457254.711523-1.178753 1.386719-2.001953 1.386719-.823199 0-1.5447-.675196-2.001953-1.386719-.277284-.431478-.449693-.925461-.632813-1.408203-.18312-.482673-.382998-.967341-.701172-1.367187-.277533-.3487908-.641772-.6229079-1.042968-.7988285-.401195-.1759214-.838205-.2541081-1.273438-.2402344zm5.652344 5.9980469a1.0000085 1.0000087 0 0 1 1 1 1.0000085 1.0000087 0 0 1 -1 1 1.0000085 1.0000087 0 0 1 -1-1 1.0000085 1.0000087 0 0 1  1-1z" fill="#fff"/><path d="m3.4746094 2c-.8164211 0-1.4746094.6581883-1.4746094 1.4746094v1c0-.8164211.6581883-1.4746094 1.4746094-1.4746094h25.0507816c.816421 0 1.474609.6581883 1.474609 1.4746094v-1c0-.8164211-.658188-1.4746094-1.474609-1.4746094z" fill="#fff" opacity=".2"/><path d="m2 27.525391v1c0 .816421.6581883 1.474609 1.4746094 1.474609h25.0507816c.816421 0 1.474609-.658188 1.474609-1.474609v-1c0 .816421-.658188 1.474609-1.474609 1.474609h-25.0507816c-.8164211 0-1.4746094-.658188-1.4746094-1.474609z" opacity=".3"/></svg>

<?xml version="1.0" encoding="UTF-8" standalone="no"?>
<svg
   xmlns:dc="http://purl.org/dc/elements/1.1/"
   xmlns:cc="http://creativecommons.org/ns#"
   xmlns:rdf="http://www.w3.org/1999/02/22-rdf-syntax-ns#"
   xmlns:svg="http://www.w3.org/2000/svg"
   xmlns="http://www.w3.org/2000/svg"
   xmlns:sodipodi="http://sodipodi.sourceforge.net/DTD/sodipodi-0.dtd"
   xmlns:inkscape="http://www.inkscape.org/namespaces/inkscape"
   version="1.1"
   id="svg4261"
   viewBox="0 0 32 32.000001"
   height="32"
   width="32"
   inkscape:version="0.91 r13725"
   sodipodi:docname="mendeley-desktop.svg">
  <sodipodi:namedview
     pagecolor="#ffffff"
     bordercolor="#666666"
     borderopacity="1"
     objecttolerance="10"
     gridtolerance="10"
     guidetolerance="10"
     inkscape:pageopacity="0"
     inkscape:pageshadow="2"
     inkscape:window-width="1600"
     inkscape:window-height="849"
     id="namedview13"
     showgrid="false"
     inkscape:zoom="8.08"
     inkscape:cx="24"
     inkscape:cy="15.465149"
     inkscape:window-x="0"
     inkscape:window-y="0"
     inkscape:window-maximized="1"
     inkscape:current-layer="svg4261" />
  <defs
     id="defs4263" />
  <metadata
     id="metadata4266">
    <rdf:RDF>
      <cc:Work
         rdf:about="">
        <dc:format>image/svg+xml</dc:format>
        <dc:type
           rdf:resource="http://purl.org/dc/dcmitype/StillImage" />
        <dc:title></dc:title>
      </cc:Work>
    </rdf:RDF>
  </metadata>
  <rect
     style="opacity:1;fill:#be212e;fill-opacity:1;stroke:none;stroke-width:0.1;stroke-miterlimit:4;stroke-dasharray:none;stroke-opacity:1"
     id="rect5010"
     width="28"
     height="28"
     x="2"
     y="2"
     rx="1.4736843" />
  <path
     id="path4316"
     d="m 10.347656,10.001953 c -0.8704673,0.02775 -1.7113984,0.42979 -2.3554685,1.039063 -0.6545595,0.619192 -1.1237127,1.470128 -1.21875,2.384765 -0.04752,0.457352 -0.00148,0.925191 0.1445313,1.359375 0.1459947,0.434253 0.3928803,0.833608 0.7207031,1.142578 0.3866341,0.3644 0.8704017,0.593868 1.3144531,0.878907 0.2220261,0.142555 0.4352305,0.301708 0.6191406,0.49414 0.1839094,0.192431 0.3376704,0.420999 0.421875,0.677735 0.074917,0.228434 0.092043,0.47412 0.058593,0.71289 -0.03345,0.238839 -0.1182884,0.469741 -0.2421871,0.673828 -0.2477954,0.408239 -0.6474814,0.704358 -1.0859375,0.863282 -0.5085515,0.184315 -1.0684183,0.193811 -1.5585938,0.425781 -0.3878787,0.183553 -0.7144842,0.503347 -0.9179687,0.892578 -0.2034821,0.389232 -0.2838335,0.847098 -0.234375,1.287109 0.058112,0.51701 0.2973563,1.007956 0.6542969,1.373047 0.3569399,0.365093 0.8291965,0.603046 1.3242187,0.681641 0.7258921,0.115223 1.5016211,-0.125435 2.0292965,-0.65625 0.263836,-0.265407 0.463823,-0.597651 0.576172,-0.960938 0.112348,-0.363358 0.135502,-0.756819 0.0625,-1.130859 -0.05574,-0.285593 -0.163967,-0.556542 -0.265625,-0.828125 -0.101656,-0.271649 -0.198148,-0.549533 -0.222656,-0.839844 -0.04327,-0.512572 0.14513,-1.034089 0.472656,-1.419922 0.327529,-0.385833 0.786405,-0.639713 1.269531,-0.751953 0.311715,-0.07242 0.636359,-0.08933 0.951172,-0.0332 0.314815,0.05619 0.619912,0.184981 0.875,0.384766 0.255088,0.199784 0.459014,0.470823 0.572266,0.78125 0.113254,0.310429 0.133278,0.660039 0.04297,0.978515 -0.0925,0.326174 -0.29079,0.607025 -0.492188,0.875 -0.201395,0.267969 -0.413525,0.537054 -0.533203,0.853516 -0.131982,0.348998 -0.145118,0.74239 -0.05469,1.105469 0.09043,0.363011 0.28096,0.69479 0.53125,0.964844 0.27689,0.298776 0.628418,0.522163 1.009765,0.644531 C 15.197755,24.977906 15.587215,25 15.986328,25 c 0.399115,0 0.815917,-0.0221 1.197266,-0.144531 0.381347,-0.122368 0.732874,-0.345755 1.009765,-0.644531 0.250289,-0.270054 0.440825,-0.601833 0.53125,-0.964844 0.09042,-0.363079 0.07729,-0.756471 -0.05469,-1.105469 -0.119679,-0.316463 -0.331806,-0.585543 -0.533203,-0.853516 -0.201397,-0.267975 -0.399697,-0.548826 -0.492188,-0.875 -0.09031,-0.318476 -0.07028,-0.668086 0.04297,-0.978515 0.113252,-0.310427 0.317177,-0.581466 0.572266,-0.78125 0.255088,-0.199785 0.560185,-0.328576 0.875,-0.384766 0.314813,-0.05613 0.639457,-0.03921 0.951172,0.0332 0.483125,0.11224 0.942004,0.36612 1.269531,0.751953 0.327526,0.385833 0.515929,0.90735 0.472656,1.419922 -0.0245,0.290311 -0.120999,0.568195 -0.222656,0.839844 -0.101655,0.271586 -0.20988,0.542532 -0.265625,0.828125 -0.07299,0.37404 -0.04985,0.767501 0.0625,1.130859 0.112348,0.363287 0.312336,0.695531 0.576172,0.960938 0.527675,0.530815 1.303404,0.771473 2.029296,0.65625 0.495022,-0.0786 0.967279,-0.316548 1.324219,-0.681641 0.35694,-0.365091 0.596183,-0.856037 0.654297,-1.373047 0.04946,-0.440011 -0.03089,-0.897877 -0.234375,-1.287109 -0.203485,-0.389231 -0.530089,-0.709025 -0.917969,-0.892578 -0.490175,-0.23197 -1.050042,-0.241466 -1.558593,-0.425781 -0.438456,-0.158924 -0.838142,-0.455043 -1.085938,-0.863282 -0.123899,-0.204087 -0.208738,-0.434989 -0.242187,-0.673828 -0.03345,-0.23877 -0.01633,-0.484456 0.05859,-0.71289 0.0842,-0.256736 0.237965,-0.485304 0.421875,-0.677735 0.183909,-0.192432 0.397114,-0.351585 0.619141,-0.49414 0.444052,-0.285039 0.927819,-0.514507 1.314453,-0.878907 0.327823,-0.30897 0.574708,-0.708325 0.720703,-1.142578 0.145987,-0.434184 0.192048,-0.902023 0.144531,-1.359375 -0.09504,-0.914637 -0.564191,-1.765573 -1.21875,-2.384765 -0.644069,-0.609273 -1.485,-1.011314 -2.355468,-1.039063 -0.435233,-0.013875 -0.872241,0.06432 -1.273438,0.240235 -0.401195,0.17592 -0.765434,0.450037 -1.042968,0.798828 -0.318174,0.399845 -0.518052,0.884514 -0.701172,1.367187 -0.18312,0.482742 -0.355532,0.976725 -0.632813,1.408203 C 17.544699,14.527929 16.8232,15.203125 16,15.203125 c -0.823199,0 -1.5447,-0.675196 -2.001953,-1.386719 C 13.720763,13.384928 13.548354,12.890945 13.365234,12.408203 13.182114,11.92553 12.982236,11.440862 12.664062,11.041016 12.386529,10.692225 12.02229,10.418108 11.621094,10.242188 11.219899,10.066266 10.782889,9.9880794 10.347656,10.001953 Z M 16,16 a 1.0000085,1.0000087 0 0 1 1,1 1.0000085,1.0000087 0 0 1 -1,1 1.0000085,1.0000087 0 0 1 -1,-1 1.0000085,1.0000087 0 0 1 1,-1 z"
     style="opacity:0.2;fill:#000000;fill-opacity:1;stroke:none;stroke-width:0.07407407;stroke-miterlimit:4;stroke-dasharray:none;stroke-opacity:1"
     inkscape:connector-curvature="0" />
  <path
     style="opacity:1;fill:#ffffff;fill-opacity:1;stroke:none;stroke-width:0.07407407;stroke-miterlimit:4;stroke-dasharray:none;stroke-opacity:1"
     d="M 10.347656 9.0019531 C 9.4771887 9.0297031 8.6362576 9.4317434 7.9921875 10.041016 C 7.337628 10.660208 6.8684748 11.511144 6.7734375 12.425781 C 6.7259175 12.883133 6.771954 13.350972 6.9179688 13.785156 C 7.0639635 14.219409 7.3108491 14.618764 7.6386719 14.927734 C 8.025306 15.292134 8.5090736 15.521602 8.953125 15.806641 C 9.1751511 15.949196 9.3883555 16.108349 9.5722656 16.300781 C 9.756175 16.493212 9.909936 16.72178 9.9941406 16.978516 C 10.069058 17.20695 10.086184 17.452636 10.052734 17.691406 C 10.019284 17.930245 9.9344456 18.161147 9.8105469 18.365234 C 9.5627515 18.773473 9.1630655 19.069592 8.7246094 19.228516 C 8.2160579 19.412831 7.6561911 19.422327 7.1660156 19.654297 C 6.7781369 19.83785 6.4515314 20.157644 6.2480469 20.546875 C 6.0445648 20.936107 5.9642134 21.393973 6.0136719 21.833984 C 6.0717839 22.350994 6.3110282 22.84194 6.6679688 23.207031 C 7.0249087 23.572124 7.4971653 23.810077 7.9921875 23.888672 C 8.7180796 24.003895 9.4938086 23.763237 10.021484 23.232422 C 10.28532 22.967015 10.485307 22.634771 10.597656 22.271484 C 10.710004 21.908126 10.733158 21.514665 10.660156 21.140625 C 10.604416 20.855032 10.496189 20.584083 10.394531 20.3125 C 10.292875 20.040851 10.196383 19.762967 10.171875 19.472656 C 10.128605 18.960084 10.317005 18.438567 10.644531 18.052734 C 10.97206 17.666901 11.430936 17.413021 11.914062 17.300781 C 12.225777 17.228361 12.550421 17.211448 12.865234 17.267578 C 13.180049 17.323768 13.485146 17.452559 13.740234 17.652344 C 13.995322 17.852128 14.199248 18.123167 14.3125 18.433594 C 14.425754 18.744023 14.445778 19.093633 14.355469 19.412109 C 14.262969 19.738283 14.064679 20.019134 13.863281 20.287109 C 13.661886 20.555078 13.449756 20.824163 13.330078 21.140625 C 13.198096 21.489623 13.18496 21.883015 13.275391 22.246094 C 13.365821 22.609105 13.556351 22.940884 13.806641 23.210938 C 14.083531 23.509714 14.435059 23.733101 14.816406 23.855469 C 15.197755 23.977906 15.587215 24 15.986328 24 C 16.385443 24 16.802245 23.977905 17.183594 23.855469 C 17.564941 23.733101 17.916468 23.509714 18.193359 23.210938 C 18.443648 22.940884 18.634184 22.609105 18.724609 22.246094 C 18.815029 21.883015 18.801902 21.489623 18.669922 21.140625 C 18.550243 20.824162 18.338116 20.555082 18.136719 20.287109 C 17.935322 20.019134 17.737022 19.738283 17.644531 19.412109 C 17.554221 19.093633 17.57425 18.744023 17.6875 18.433594 C 17.800752 18.123167 18.004677 17.852128 18.259766 17.652344 C 18.514854 17.452559 18.819951 17.323768 19.134766 17.267578 C 19.449579 17.211448 19.774223 17.228371 20.085938 17.300781 C 20.569063 17.413021 21.027942 17.666901 21.355469 18.052734 C 21.682995 18.438567 21.871398 18.960084 21.828125 19.472656 C 21.803625 19.762967 21.707126 20.040851 21.605469 20.3125 C 21.503814 20.584086 21.395589 20.855032 21.339844 21.140625 C 21.266854 21.514665 21.289994 21.908126 21.402344 22.271484 C 21.514692 22.634771 21.71468 22.967015 21.978516 23.232422 C 22.506191 23.763237 23.28192 24.003895 24.007812 23.888672 C 24.502834 23.810072 24.975091 23.572124 25.332031 23.207031 C 25.688971 22.84194 25.928214 22.350994 25.986328 21.833984 C 26.035788 21.393973 25.955436 20.936107 25.751953 20.546875 C 25.548468 20.157644 25.221864 19.83785 24.833984 19.654297 C 24.343809 19.422327 23.783942 19.412831 23.275391 19.228516 C 22.836935 19.069592 22.437249 18.773473 22.189453 18.365234 C 22.065554 18.161147 21.980715 17.930245 21.947266 17.691406 C 21.913816 17.452636 21.930939 17.20695 22.005859 16.978516 C 22.090059 16.72178 22.243824 16.493212 22.427734 16.300781 C 22.611643 16.108349 22.824848 15.949196 23.046875 15.806641 C 23.490927 15.521602 23.974694 15.292134 24.361328 14.927734 C 24.689151 14.618764 24.936036 14.219409 25.082031 13.785156 C 25.228018 13.350972 25.274079 12.883133 25.226562 12.425781 C 25.131522 11.511144 24.662371 10.660208 24.007812 10.041016 C 23.363743 9.4317434 22.522812 9.0297018 21.652344 9.0019531 C 21.217111 8.9880781 20.780103 9.0662696 20.378906 9.2421875 C 19.977711 9.4181081 19.613472 9.6922252 19.335938 10.041016 C 19.017764 10.440861 18.817886 10.92553 18.634766 11.408203 C 18.451646 11.890945 18.279234 12.384928 18.001953 12.816406 C 17.544699 13.527929 16.8232 14.203125 16 14.203125 C 15.176801 14.203125 14.4553 13.527929 13.998047 12.816406 C 13.720763 12.384928 13.548354 11.890945 13.365234 11.408203 C 13.182114 10.92553 12.982236 10.440862 12.664062 10.041016 C 12.386529 9.6922252 12.02229 9.4181081 11.621094 9.2421875 C 11.219899 9.0662661 10.782889 8.9880794 10.347656 9.0019531 z M 16 15 A 1.0000085 1.0000087 0 0 1 17 16 A 1.0000085 1.0000087 0 0 1 16 17 A 1.0000085 1.0000087 0 0 1 15 16 A 1.0000085 1.0000087 0 0 1 16 15 z "
     id="path4313" />
  <path
     style="opacity:0.2;fill:#ffffff;fill-opacity:1;stroke:none;stroke-width:0.1;stroke-miterlimit:4;stroke-dasharray:none;stroke-opacity:1"
     d="M 3.4746094 2 C 2.6581883 2 2 2.6581883 2 3.4746094 L 2 4.4746094 C 2 3.6581883 2.6581883 3 3.4746094 3 L 28.525391 3 C 29.341812 3 30 3.6581883 30 4.4746094 L 30 3.4746094 C 30 2.6581883 29.341812 2 28.525391 2 L 3.4746094 2 z "
     id="rect4301" />
  <path
     style="opacity:0.3;fill:#000000;fill-opacity:1;stroke:none;stroke-width:0.1;stroke-miterlimit:4;stroke-dasharray:none;stroke-opacity:1"
     d="M 2 27.525391 L 2 28.525391 C 2 29.341812 2.6581883 30 3.4746094 30 L 28.525391 30 C 29.341812 30 30 29.341812 30 28.525391 L 30 27.525391 C 30 28.341812 29.341812 29 28.525391 29 L 3.4746094 29 C 2.6581883 29 2 28.341812 2 27.525391 z "
     id="rect4306" />
</svg>
